X:4275
T:the Piper Through the Meadow Straying
M:4/4
Z:Richard Robinson 
%%TUNEURL: http://www.leeds.ac.uk/music/Info/RRTuneBk/gettune/00000ee1.html
%%ID:00000ee1
K:G
Bc |\
dedc BcBA | GFGA B2G2 | AB (3cBA G2F2 | G2B2 B2A2 |! \
dedc BcBA | GFGA B2G2 | AB (3cBA G2F2 |1 G2B2 G2 :|2 G2B2 G4 :: !\
A2AB c2A2 | BABc d2B2 | cde2 efg2 | fed^c d2Bc |\
dedc BcBA | GFGA B2G2 | ! AB (3cBA G2F2 | G2B2 B2A2 | \
dedc BcBA | GFGA B2G2 | AB (3cBA G2F2 | G2B2 G4 :|
